X: 27750
T: Morning Star, The
R: reel
M: 4/4
K: Gmajor
d||B2BA BGEF|GABd gfed|B2BA BE ~E2|dBAB G3A|
B2BA BEED|GABd gfed|dBAc BEED|FGAF G4||
(3B^cd ef g3g|fedf eBBA|(3B^cd ef gfge|afd2 e2ed|
(3B^cd ef g3e|fed2 eBBA|Bdef gfge|dfaf gfed||

